X:76
T:Fox - Collier
%%VWML:SBG-1-2-261-0
F:http://www.vwml.org/record/SBG/1/2/261
Z:Original Sibelius transcriptions by M. & S. Graebe
M:4/4
I:linebreak $
K:C
V:1 treble nm="P1"
V:1
 G2 | c2 c2 c2 G2 | E2 G2 G3 G | A2 AA A3 G | E G G2 G3 G |$ c2 c c c2 B2 | A2 Bc d3 c | %7
 c2 e2 g2 f f | e4 c4 | f4 d4 |$ B4 G3 G | c2 c c c3 B | A2 Bc d3 d | c2 e2 g3 f/ f/ | e4 c2 z2 | %15
T:Fox - Parsons
F:http://www.vwml.org/record/SBG/1/2/261
Z:Original Sibelius transcriptions by M. & S. Graebe
L:1/4
M:4/4
I:linebreak $
K:F
V:1 treble nm="P1"
V:2 treble 
V:1
 C | C C F E/F/ | G E G C | D D B, D | A, C F C | C F F E/F/ |$ G E/F/ G F/G/ | A B c B | A G F C | %9
 B A G F/E/ | F2 C C |$ C D/E/ F E/F/ | G E/F/ G G | A B c B | A G F2 | %15
V:2
 x | x4 | x4 | x2 D C/B,/ | x4 | x4 |$ x4 | x4 | x4 | x4 | x4 |$ x4 | x4 | x4 | x4 | %15

